packages/icons/plugins/FileService.svg

<svg width="37" height="36" viewBox="0 0 37 36" xmlns="http://www.w3.org/2000/svg">
<g>
        <path
            d="M5 10C5 9.44772 5.44772 9 6 9H15.75C16.0648 9 16.3611 9.14819 16.55 9.4L21.8 16.4C22.2944 17.0592 21.824 18 21 18H6C5.44772 18 5 17.5523 5 17V10Z"
            fill="#F7931E"
        />
        <g filter="url(#filter0_b_39_226867)">
            <rect x="7.25" y="11.0039" width="22.5" height="15.75" rx="1" fill="white" fill-opacity="0.3" />
        </g>
        <path
            fill-rule="evenodd"
            clip-rule="evenodd"
            d="M6 11.7363C5.44772 11.7363 5 12.184 5 12.7363V14.5V19.7363V28.25C5 28.8023 5.44771 29.25 6 29.25H31C31.5523 29.25 32 28.8023 32 28.25V14.5C32 13.9477 31.5523 13.5 31 13.5H17.5728L16.55 12.1363C16.3611 11.8845 16.0648 11.7363 15.75 11.7363H6Z"
            fill="#FFB110"
        />
        <path
            fill-rule="evenodd"
            clip-rule="evenodd"
            d="M15.9282 17.7951C14.9046 17.9701 14.2166 18.9418 14.3916 19.9655C14.5666 20.9891 15.5383 21.6771 16.562 21.5022C17.5857 21.3272 18.2736 20.3554 18.0986 19.3317C17.9236 18.3081 16.9519 17.6201 15.9282 17.7951ZM12.913 20.2182C12.5984 18.3779 13.8352 16.6311 15.6755 16.3165C17.5158 16.0019 19.2626 17.2387 19.5772 19.079C19.8918 20.9192 18.655 22.6661 16.8147 22.9807C14.9745 23.2953 13.2276 22.0585 12.913 20.2182Z"
            fill="white"
        />
        <path
            fill-rule="evenodd"
            clip-rule="evenodd"
            d="M17.8942 21.1761C18.1384 20.8415 18.6076 20.7682 18.9422 21.0123L23.1469 24.0806C23.4815 24.3248 23.5548 24.7939 23.3106 25.1285C23.0665 25.4631 22.5973 25.5365 22.2627 25.2923L18.058 22.224C17.7234 21.9798 17.65 21.5107 17.8942 21.1761Z"
            fill="white"
        />
        <path
            fill-rule="evenodd"
            clip-rule="evenodd"
            d="M20.2519 23.516C19.9157 23.2741 19.8393 22.8054 20.0812 22.4692L20.984 21.2145C21.226 20.8783 21.6947 20.8018 22.0309 21.0437C22.3671 21.2857 22.4435 21.7544 22.2016 22.0906L21.2988 23.3453C21.0568 23.6815 20.5882 23.7579 20.2519 23.516Z"
            fill="white"
        />
        <path
            fill-rule="evenodd"
            clip-rule="evenodd"
            d="M22.0537 24.0463C21.7175 23.8043 21.641 23.3357 21.883 22.9994L22.7858 21.7447C23.0277 21.4085 23.4964 21.3321 23.8326 21.574C24.1688 21.8159 24.2453 22.2846 24.0034 22.6208L23.1005 23.8756C22.8586 24.2118 22.3899 24.2882 22.0537 24.0463Z"
            fill="white"
        />
        <defs>
            <filter
                id="filter0_b_39_226867"
                x="-2.75"
                y="1.00391"
                width="42.5"
                height="35.75"
                filter-units="userSpaceOnUse"
                color-interpolation-filters="sRGB">
                <feFlood flood-opacity="0" result="BackgroundImageFix" />
                <feGaussianBlur in="BackgroundImage" std-deviation="5" />
                <feComposite in2="SourceAlpha" operator="in" result="effect1_backgroundBlur_39_226867" />
                <feBlend mode="normal" in="SourceGraphic" in2="effect1_backgroundBlur_39_226867" result="shape" />
            </filter>
        </defs>
    </g>
</svg>

<svg xmlns="http://www.w3.org/2000/svg" width="37" height="36">
    <path fill="#F7931E" d="M5 10a1 1 0 0 1 1-1h9.75a1 1 0 0 1 .8.4l5.25 7A1 1 0 0 1 21 18H6a1 1 0 0 1-1-1v-7Z"/>
    <g filter="url(#FileService_svg__a)">
        <rect width="22.5" height="15.75" x="7.25" y="11.004" fill="#fff" fill-opacity=".3" rx="1"/>
    </g>
    <path fill="#FFB110" fill-rule="evenodd" d="M6 11.736a1 1 0 0 0-1 1V28.25a1 1 0 0 0 1 1h25a1 1 0 0 0 1-1V14.5a1 1 0 0 0-1-1H17.573l-1.023-1.364a1 1 0 0 0-.8-.4H6Z" clip-rule="evenodd"/>
    <path fill="#fff" fill-rule="evenodd" d="M15.928 17.795a1.88 1.88 0 1 0 .634 3.707 1.88 1.88 0 0 0-.634-3.707Zm-3.015 2.423a3.38 3.38 0 1 1 6.664-1.14 3.38 3.38 0 0 1-6.664 1.14Z" clip-rule="evenodd"/>
    <path fill="#fff" fill-rule="evenodd" d="M17.894 21.176a.75.75 0 0 1 1.048-.164l4.205 3.069a.75.75 0 1 1-.884 1.211l-4.205-3.068a.75.75 0 0 1-.164-1.048Z" clip-rule="evenodd"/>
    <path fill="#fff" fill-rule="evenodd" d="M20.252 23.516a.75.75 0 0 1-.17-1.047l.902-1.255a.75.75 0 0 1 1.218.877l-.903 1.254a.75.75 0 0 1-1.047.171Zm1.802.53A.75.75 0 0 1 21.883 23l.903-1.254a.75.75 0 0 1 1.217.876l-.902 1.255a.75.75 0 0 1-1.047.17Z" clip-rule="evenodd"/>
    <defs>
        <filter id="FileService_svg__a" width="42.5" height="35.75" x="-2.75" y="1.004" color-interpolation-filters="sRGB">
            <feFlood flood-opacity="0" result="BackgroundImageFix"/>
            <feGaussianBlur in="BackgroundImage"/>
            <feComposite in2="SourceAlpha" operator="in" result="effect1_backgroundBlur_39_226867"/>
            <feBlend in="SourceGraphic" in2="effect1_backgroundBlur_39_226867" result="shape"/>
        </filter>
    </defs>
</svg>
